src/pos-icons/weather-sunset-down.svg

<svg height="24" viewBox="0 0 24 24" width="24" xmlns="http://www.w3.org/2000/svg"><path d="m3 12h4a5 5 0 0 1 5-5 5 5 0 0 1 5 5h4a1 1 0 0 1 1 1 1 1 0 0 1 -1 1h-18a1 1 0 0 1 -1-1 1 1 0 0 1 1-1m12 0a3 3 0 0 0 -3-3 3 3 0 0 0 -3 3zm-3-10 2.39 3.42c-.74-.27-1.55-.42-2.39-.42s-1.65.15-2.39.42zm-8.66 5 4.16-.35c-.6.51-1.14 1.13-1.56 1.85-.44.74-.69 1.5-.83 2.29zm17.31 0-1.77 3.79c-.14-.79-.41-1.56-.83-2.29-.42-.72-.95-1.35-1.55-1.86zm-7.94 13.71 3.11-3.11c.39-.39.39-1.03 0-1.42s-1.02-.39-1.41 0l-2.41 2.41-2.41-2.41c-.39-.39-1.02-.39-1.41 0s-.39 1.03 0 1.42l3.11 3.11c.21.19.45.29.71.29s.5-.1.71-.29z"/></svg>

<?xml version="1.0" encoding="UTF-8"?><!DOCTYPE svg PUBLIC "-//W3C//DTD SVG 1.1//EN" "http://www.w3.org/Graphics/SVG/1.1/DTD/svg11.dtd"><svg xmlns="http://www.w3.org/2000/svg" xmlns:xlink="http://www.w3.org/1999/xlink" version="1.1" id="mdi-weather-sunset-down" width="24" height="24" viewBox="0 0 24 24"><path d="M3,12H7A5,5 0 0,1 12,7A5,5 0 0,1 17,12H21A1,1 0 0,1 22,13A1,1 0 0,1 21,14H3A1,1 0 0,1 2,13A1,1 0 0,1 3,12M15,12A3,3 0 0,0 12,9A3,3 0 0,0 9,12H15M12,2L14.39,5.42C13.65,5.15 12.84,5 12,5C11.16,5 10.35,5.15 9.61,5.42L12,2M3.34,7L7.5,6.65C6.9,7.16 6.36,7.78 5.94,8.5C5.5,9.24 5.25,10 5.11,10.79L3.34,7M20.65,7L18.88,10.79C18.74,10 18.47,9.23 18.05,8.5C17.63,7.78 17.1,7.15 16.5,6.64L20.65,7M12.71,20.71L15.82,17.6C16.21,17.21 16.21,16.57 15.82,16.18C15.43,15.79 14.8,15.79 14.41,16.18L12,18.59L9.59,16.18C9.2,15.79 8.57,15.79 8.18,16.18C7.79,16.57 7.79,17.21 8.18,17.6L11.29,20.71C11.5,20.9 11.74,21 12,21C12.26,21 12.5,20.9 12.71,20.71Z" /></svg>
